X:67
T:Prince George for Ever
M:C|
L:1/8
B:Thompson's Compleat Collection of 200 Favourite Country Dances, vol. 1 (London, 1757)
Z:Transcribed and edited by Fynnian Titford-Mock, 2007
Z:abc's:AK/Fiddler's Companion
K:A
e/e/e ed c/c/c cB|Aedc {d}"tr"c2 B2|ecdB cABG|Afe^d e2E2:|
|:BE dB ceAc|BE dB ceAc|BE dB cfed|c2 "tr"B2 A4:|
|:A(cc)e dBcG|A(cc)e dfBc|A(cc)e dBcG|AfB^d e2 E2:|
|:ec ce/c/ dfBd|ce ed/c/ dfBd|ec ce/c/ da g/f/e/d/|c2 "tr"B2 A4:|

